libs/ui/packages/crypto-icons/src/svg/currency_optimism.svg

<svg width="24" height="24" stroke-miterlimit="10" version="1.1" viewBox="0 0 24 24" xml:space="preserve" xmlns="http://www.w3.org/2000/svg" xmlns:xlink="http://www.w3.org/1999/xlink">
<path d="M10.1562 10.5312C9.9091 10.5312 9.70779 10.6052 9.53125 10.75C9.35824 10.8948 9.2304 11.1026 9.15625 11.4062C9.07504 11.7028 8.98746 12.0693 8.90625 12.5C8.8886 12.5883 8.875 12.6824 8.875 12.7812C8.87147 13.1908 9.10756 13.4062 9.53125 13.4062C9.7784 13.4062 9.98324 13.3323 10.1562 13.1875C10.3328 13.0427 10.4571 12.8036 10.5312 12.5C10.6336 12.0834 10.697 11.717 10.75 11.4062C10.7677 11.3145 10.7812 11.2239 10.7812 11.125C10.7812 10.7225 10.5764 10.5313 10.1562 10.5312Z" fill="#000000" fill-rule="nonzero" opacity="1" stroke="none"/>
<path d="M14.1562 10.5625L13.9062 11.75C13.9062 11.75 14.6875 11.75 14.6875 11.75C14.8746 11.75 15.0186 11.6961 15.1562 11.5938C15.2975 11.4914 15.3916 11.3469 15.4375 11.1562C15.4516 11.0821 15.4688 11.0252 15.4688 10.9688C15.4688 10.8416 15.4179 10.7233 15.3438 10.6562C15.2696 10.5856 15.1488 10.5625 14.9688 10.5625L14.1562 10.5625Z" fill="#000000" fill-rule="nonzero" opacity="1" stroke="none"/>
<path d="M12 3.1875C7.12505 3.1875 3.1875 7.12505 3.1875 12C3.1875 16.8749 7.12505 20.8125 12 20.8125C16.8749 20.8125 20.8125 16.8749 20.8125 12C20.8125 7.12505 16.8749 3.1875 12 3.1875ZM10.25 9.5625C10.589 9.5625 10.8879 9.63349 11.1562 9.75C11.4246 9.85945 11.6259 10.024 11.7812 10.25C11.9366 10.4724 12.0313 10.7241 12.0312 11.0312C12.0312 11.123 12.0212 11.265 12 11.4062C11.9329 11.7982 11.8453 12.1605 11.75 12.5312C11.5946 13.135 11.3188 13.6061 10.9375 13.9062C10.5597 14.2028 10.073 14.3437 9.4375 14.3438C8.91142 14.3437 8.46042 14.2159 8.125 13.9688C7.79311 13.7181 7.625 13.3688 7.625 12.9062C7.625 12.8074 7.63507 12.6725 7.65625 12.5312C7.71274 12.2135 7.80032 11.8547 7.90625 11.4062C8.20636 10.1917 9.00011 9.5625 10.25 9.5625ZM13.3125 9.65625L15.0625 9.65625C15.5533 9.65625 15.9534 9.73625 16.25 9.9375C16.5501 10.1423 16.6875 10.4276 16.6875 10.8125C16.6875 10.922 16.681 11.0675 16.6562 11.1875C16.5468 11.6959 16.339 12.0689 16 12.3125C15.6681 12.5561 15.204 12.6563 14.625 12.6562L13.7188 12.6562L13.4375 14.125C13.4269 14.1744 13.3861 14.2182 13.3438 14.25C13.3049 14.2818 13.2646 14.2813 13.2188 14.2812C13.2188 14.2812 12.3438 14.2812 12.3438 14.2812C12.2943 14.2812 12.247 14.2818 12.2188 14.25C12.1976 14.2147 12.1804 14.1709 12.1875 14.125L13.0938 9.8125C13.1008 9.76307 13.1451 9.71928 13.1875 9.6875C13.2263 9.65572 13.2666 9.65625 13.3125 9.65625Z" fill="#000000" fill-rule="nonzero" opacity="1" stroke="none"/>
</svg>

<svg xmlns="http://www.w3.org/2000/svg" xml:space="preserve" width="24" height="24" viewBox="0 0 24 24" stroke-miterlimit="10"><path d="M10.156 10.531a.94.94 0 0 0-.625.219c-.173.145-.3.353-.375.656a14 14 0 0 0-.25 1.094 1.4 1.4 0 0 0-.031.281c-.004.41.233.625.656.625a.94.94 0 0 0 .625-.219c.177-.144.301-.383.375-.687.103-.417.166-.783.219-1.094.018-.091.031-.182.031-.281 0-.402-.205-.594-.625-.594m4 .032-.25 1.187h.781a.74.74 0 0 0 .47-.156.73.73 0 0 0 .28-.438c.015-.074.032-.13.032-.187a.43.43 0 0 0-.125-.313c-.074-.07-.195-.094-.375-.094z"/><path d="M12 3.188A8.8 8.8 0 0 0 3.188 12 8.8 8.8 0 0 0 12 20.813 8.8 8.8 0 0 0 20.813 12 8.8 8.8 0 0 0 12 3.188m-1.75 6.374c.339 0 .638.071.906.188.269.11.47.274.625.5.156.222.25.474.25.781 0 .092-.01.234-.031.375-.067.392-.155.755-.25 1.125-.155.604-.431 1.075-.812 1.375-.378.297-.865.438-1.5.438-.527 0-.978-.128-1.313-.375-.332-.25-.5-.6-.5-1.063 0-.099.01-.234.031-.375.057-.318.144-.676.25-1.125.3-1.214 1.094-1.844 2.344-1.844m3.063.094h1.75c.49 0 .89.08 1.187.281.3.205.438.49.438.876 0 .109-.007.255-.032.374-.11.509-.317.882-.656 1.126-.332.243-.796.343-1.375.343h-.906l-.281 1.469c-.011.05-.052.093-.094.125-.04.032-.08.031-.125.031h-.875c-.05 0-.097 0-.125-.031a.2.2 0 0 1-.031-.125l.906-4.312c.007-.05.051-.094.094-.126.038-.031.079-.03.124-.03"/></svg>
